!!!!SEGMENT: pl-kozmzk--mzk-m-31--016_szymanowska-maria--preludium-es-dur.krn
!!!cenid: 18xx:452
!!!COM: Szymanowska, Maria
!!!COM-rismid: pe140138
!!!CDT: 1789/12/14-1831/07/25
!!!CNT: Polish
!!!OTL: Preludium Es-dur
!!!PDT: 1819
!!!AGN: Secular; Prelude
!!!SMS-siglum: PL-KOZmzk
!!!SMS-shelfmark: mzk/m/31
!!!SMS-shelfwork: 016 G
!!!SMS-variant:
!!!SMS-altvar:
!!!NIFC-rismid: 1001025339
!!!URL-scan: http://repozytorium.nifc.pl/skany/pl-kozmzk-nut--mzkm31
!!!ONB-nifc: W źródle numer 15 zamiast 16
**kern	**kern	**dynam
*part2	*part1	*part1
*staff2	*staff1	*
*I"Piano	*I"Piano	*
*I'P-no	*I'Pno.	*
*clefF4	*clefG2	*
*k[b-e-a-]	*k[b-e-a-]	*
*E-:	*E-:	*
*M12/8	*M12/8	*
=1	=1	=1
!LO:SIC:o:s=:v:błednie wpisany numer utworu. Powinien być 16	!	!
!	!LO:TX:a:i:B:rj:t=Grazioso.	!
!	!LO:TX:b:t=piano e legato	!
4.ryy	(8g/L	.
.	8a-/	.
!	!LO:TX:a:t=md.	!
.	8an/	.
4ryy	8b-/	.
.	8g/J)	.
!LO:TX:a:t=ms	!	!
8e->\	8ryy	.
4.ryy	(8d/L	.
.	8f/	.
!	!LO:TX:a:t=md.	!
.	8a-X/	.
4ryy	8cc/	.
.	8b-/J)	.
!LO:TX:a:t=ms.	!	!
8a->\	8ryy	.
=2	=2	=2
4.ryy	(8g/L	.
.	8a-/	.
.	8an/	.
4ryy	8b-/	.
.	8g/J)	.
8e->\	8ryy	.
4.ryy	(8d/L	.
.	8f/	.
.	8a-X/	.
4ryy	8cc/	.
.	8b-/J)	.
8a->\	8ryy	.
=3	=3	=3
4.ryy	(8g/L	<
.	8b-/	.
.	8dd-X/	.
4ryy	8ff/	.
.	8ee-/J)	.
8dd>\	8ryy	.
4.ryy	(8cc/L	.
.	8ee-/	.
.	8aa-/	.
4ryy	8ccc/	.
.	8bb-/J)	.
8aa->\	8ryy	[[
!!LO:LB:g=original
=4	=4	=4
4.ryy	(8gg/L	>
.	8aa-/	.
.	8aan/	.
4ryy	8bb-/	.
.	8gg/J)	.
8ee->\	8ryy	.
8dd>`\	8ryy	.
4ryy	(8ee-/L	.
.	8cc/J)	.
8b->`\	8ryy	.
4ryy	(8cc/L	.
.	8a-/J)	]]
=5	=5	=5
4.ryy	8g/L	.
.	8a-/	.
.	8an/	.
4ryy	8b-/	.
.	8g/J	.
8e->\	8ryy	.
4.ryy	8d/L	.
.	8f/	.
.	8a-X/	.
4ryy	8cc/	.
.	8b-/J	.
8a->\	8ryy	.
=6	=6	=6
4.ryy	8g-X/L	.
.	8a-/	.
.	8an/	.
4ryy	8b-/	.
.	8g-/J	.
8e->\	8ryy	.
4.ryy	8d/L	.
.	8f/	.
.	8a/	.
4ryy	8cc-X/	.
.	8b-/J	.
8a->\	8ryy	.
=7	=7	=7
4.ryy	(8g/L	.
.	8b-/	.
.	8dd-X/	.
4ryy	8ff-X/	.
.	8ee-/J)	.
8dd>`\	8ryy	.
4.ryy	(8cc/L	.
.	8ee-/	.
.	8gg-X/	.
4ryy	8bb--/	.
.	8aa-/J)	.
8gg>\	8ryy	.
!!LO:LB:g=original
=8	=8	=8
4.ryy	(8ff/L	.
.	8aa-/	.
.	8ccc-X/	.
4ryy	8eee--/	.
.	8ddd-X/J)	.
8ccc>\	8ryy	.
4ryy	(8bb--/L	.
.	8aa-/J)	.
8gg-X>\	8ryy	.
4ryy	(8ff/L	.
.	8ee--/J)	.
!LO:SIC:o:s=:v:belka przez kreskę	!	!
8dd-X>\L	8ryy	.
=9	=9	=9
8cc-X>\J	8ryy	.
4ryy	8aa-^>/L	.
.	8cc/J	.
8a->\	8ryy	.
4ryy	8ff^>/L	.
.	8a-/J	.
8f>\	8ryy	.
4ryy	8dd^>/L	.
.	8f/J	.
8d>\	8ryy	.
4ryy	8cc-X^>/L	.
.	8d/J	.
=10	=10	=10
8c-X>\	8ryy	.
4ryy	8a-/L	.
.	8c/J	.
8A-\	8ryy	.
4ryy	8f/L	.
.	8A-</J	.
8F\	8ryy	.
4ryy	8d</L	.
.	8F</J	.
8D\	8ryy	.
4ryy	8c-X</L	.
.	8B-</J	.
!!LO:LB:g=original
=11	=11	=11
4.E-\	8r<	.
.	8c-X<^/L	.
.	8B-</J	.
!	!	!LO:DY:t=crescendo
4.D-X\	8r<	<
.	8c-<^/L	.
.	8B-</J	.
4.C-X\	8r<	.
.	8e-</L	.
.	8G-X</J	.
4.CC-X\	8r<	.
.	8An</L 8f<	.
.	8e-</J	.
=12	=12	=12
8BBB-/ 8BB-	8d\L	.
4r	8f\	.
.	8a-\	.
4r	8cc-X\	.
.	8d\J	.
!LO:TX:a:t=mg	!	!
8ccc-X>/L	8r	.
8bb->/J	8d\L	.
4r	8f\	.
.	8a-\	.
4r	8b-\	.
.	8d\J	.
!LO:TX:a:t=P:problem:mixed beam	!	!
8B-\L	8r	.
=13	=13	=13
8BB-\J	8e-\L	.
4r	8g-X\	.
.	8b-\	.
4r	8ee-\	.
.	8e-\J	.
!LO:TX:a:t=mg	!	!
8bb->/L	8r	.
8eee->/J	8c-X\L	.
4r	8e-\	.
.	8f\	.
4r	8an\	.
.	8e-\J	.
8c-X^\L	8r	.
=14	=14	=14
8B-\J	8d\L	.
4r	8f\	.
.	8a-\	.
4r	8cc-X\	.
.	8d\J	.
8ccc-X>^/L	8r	.
8bb->/J	8d\L	.
4r	8f\	.
.	8a-\	.
4r	8b-\	.
.	8d\J	.
8B-\	8r	.
!!LO:LB:g=original
=15	=15	=15
8BB-/	8e-\L	.
4r	8g-X\	.
.	8b-\	.
4r	8ee-\	.
.	8e-\J	.
*8va	*	*
8eee->/L	8r	.
8aaan>/J	8c-X\L	.
*X8va	*	*
4r	8e-\	.
.	8f\	.
4r	8an\	.
.	8e-\J	.
8C-X\L	8r	.
=16	=16	=16
8BB-\J	8d/L	.
4r	8f/	.
.	8b-/	.
8r	8dd/	.
8F\L	8f/	.
8B-\	8b-/J	.
8d\	8dd\L	.
8B-\	8b-\	.
8d\	8dd\	.
8f>\	8ff\	.
8d>\	8dd\	.
8f>\J	8ff\J	.
=17	=17	=17
*clefG2	*	*
8b-/L	8bb-\L	.
8f/	8ff\	.
8b-/	8bb-\	.
8dd/	8ddd\	.
8b-/	8bb-\	.
8dd/J	8ddd\J	.
8ff\L	8fff\L	.
8dd\	8ddd\	.
8ff\	8fff\	.
8bb-\	8bbb-\	.
8ff\	8fff\	.
8dd\J	8ddd\J	.
=18	=18	=18
8b-\	8bb-\L	.
4r	8ff\	.
.	8dd\J	.
*clefF4	*	*
8B-\	8b-/L	.
4r	8f/	.
.	8d/J	.
8BB-\	8B-</L	.
4r	8F</	.
.	8D</J	.
8BB-\	8BB-</L	.
4r	8FF</	.
.	8DD</J	.
!!LO:LB:g=original
=19||	=19||	=19||
*k[f#c#g#d#]	*k[f#c#g#d#]	*
1.BBB 1.BB	8r	.
.	8aa^\L	ff
.	8dd#\J	.
.	8aa^\L	.
.	8ff#\	.
.	8dd#\J	.
.	8a^/L	.
.	8f#/	.
.	8d#/J	.
.	8A<^/L	.
.	8F#</	.
.	8D#</J	.
=20	=20	=20
4EE\	8E</	.
.	8e\L 8g#	.
8r	8f#\J 8a	.
4r	8g#\L 8b	.
.	8f#\ 8a	.
8r	8e\J 8g#	.
!LO:TX:a:t=mg	!LO:TX:b:t=ben mar-ca-te	!
8gg#>/L 8bb>	4r	.
8ff#>/ 8aa>	.	.
8ee>/J 8gg#>	8r	.
*	*8va	*
!	!LO:TX:b:t=md.	!
4r	8ggg#\L 8bbb	.
.	8fff#\ 8aaa	.
8r	8eee\J 8ggg#	.
*clefG2	*	*
=21	=21	=21
4B/ 4b	8fff#\L 8aaa	.
.	8ggg#\ 8bbb	.
8r	8fff#\J 8aaa	.
4b\ 4ff# 4aa	8eee\L 8ggg#	.
.	8ddd#\ 8fff#	.
8r	8ccc#\J 8eee	.
4B/ 4f# 4a	8bb\L 8ddd#	.
.	8aa\ 8ccc#	.
8r	8gg#\J 8bb	.
*clefF4	*	*
*	*X8va	*
!	!LO:TX:a:t=loco	!
4.D#^\ 4.d#	8ff#\L 8aa	.
.	8gg#\ 8bb	.
.	8ff#\J 8aa	.
!!LO:PB:g=original
=22	=22	=22
4E\ 4e	8ee\ 8gg#	.
.	8e/L 8g#	.
8r	8f#/J 8a	.
4r	8g#\L 8b	.
.	8f#\ 8a	.
8r	8e\J 8g#	.
!LO:TX:a:t=mg	!	!
8gg#>/L 8bb>	4r	.
8ff#>/ 8aa>	.	.
8ee>/J 8gg#>	8r	.
*	*8va	*
!	!LO:TX:b:t=md.	!
4r	8ggg#\L 8bbb	.
.	8fff#\ 8aaa	.
8r	8eee\J 8ggg#	.
=23	=23	=23
*clefG2	*	*
4B/ 4b	8fff#\L 8aaa	.
.	8ggg#\ 8bbb	.
8r	8fff#\J 8aaa	.
4b\ 4ff# 4aa	8eee\L 8ggg#	.
.	8ddd#\ 8fff#	.
8r	8ccc#\J 8eee	.
4B/ 4f# 4a	8bb\L 8ddd#	.
.	8aa\ 8ccc#	.
8r	8bb\J 8ddd#	.
*clefF4	*	*
*	*X8va	*
!	!LO:TX:a:t=loco	!
4.D#^\ 4.d#	8g#\L 8ff# 8aa	.
.	8gg#\ 8bb	.
.	8ff#\J 8aa	.
=24	=24	=24
4E\ 4e	4ee\ 4gg	.
8r	8r	.
*k[fncngndn]	*k[fncngndn]	*
4.F-X\ 4.f-X	8a-X\L 8b-X	.
.	8dd\	.
.	8a-\J 8b-	.
4E-X\ 4e-X	4g\ 4ee-X	.
8r	8r	.
!LO:TX:a:t=mg	!	!
4.e-X\ 4.ee-X	8gg/L 8aan	.
.	8ccc#X/	.
.	8gg/J 8aa	.
!!LO:LB:g=original
=25	=25	=25
4d>\ 4dd>\ 4ff#X>\ 4ddd>\	4ddd/	.
8r	8r	.
!	!LO:TX:a:t=md.	!
4.E--\ 4.e--	8g-X\L 8a-X	.
.	8cc\	.
.	8g-\J 8a-	.
4D-X\ 4d-X	4f\ 4dd-X	.
8r	8r	.
4.d-X>\ 4.dd-X>	8ffn/L 8gg	.
!	!LO:TX:a:t=mg.	!
.	8bbn/	.
.	8ff/J 8gg	.
=26	=26	=26
4c>\ 4cc>	4ee/ 4ccc	.
8r	8r	.
!	!LO:TX:a:t=md.	!
4.C\ 4.c	8e/L 8f#X	.
.	8a#X/	.
.	8e/J 8f#	.
4BB\ 4B	4d#X\ 4b	.
8r	8r	.
4.c>\ 4.cc>	8ee-X/L 8ffn	.
!	!LO:TX:a:t=mg.	!
.	8aan/	.
.	8ee-/J 8ff	.
=27||	=27||	=27||
*k[b-e-a-]	*k[b-e-a-]	*
*	*^	*
4B->\ 4b->	4dd/ 4bb-	4ryy	.
8r	8r	8r	.
4.AA-\ 4.A-	8b-/L	4.d\	rfz
.	8cc/	.	.
.	8b-/J	.	.
4.GG/ 4.G	8b-/L	4.e-\	.
.	8cc/	.	.
.	8b-/J	.	.
4.DD/ 4.D	8b-/L	4.a-\	.
.	8cc/	.	.
.	8b-/J	.	.
!!LO:LB:g=original
=28	=28	=28	=28
4EE-/ 4E-	4b-/	4g\	.
8r	8r	8r	.
4.FF/ 4.F	8g/L	4Bn\	.
.	8an/	.	.
.	8g/J	8ryy	<
4.GG/ 4.G	8g/L	4.c\	.
.	8a/	.	.
.	8g/J	.	.
4.BBBn/ 4.BBn	8g/L	4.f\	.
.	8a/	.	.
.	8g/J	.	[
=29	=29	=29	=29
4CC/ 4C	4g/	4e-\	.
8r	8r	8r	.
*clefG2	*	*	*
(4.an^>/	8ff/L	4.ee-\	.
.	8gg/	.	.
.	8ff/J	.	.
4b-/)	4ff/	4dd\	.
8r	8r	8ryy	.
(4.a-X^>/	8bb-/L	4.dd\	.
.	8ccc/	.	.
.	8bb-/J	.	.
=30	=30	=30	=30
4g/)	4bb-/	4ee-\	.
8r	8r	8r	.
(4.a-/	8bb-/L	4.cc\	.
.	8aa-/	.	.
.	8ff/J	.	.
4b-/)	4ee-/	4g\	.
8r	8r	8ryy	.
4B-/	4dd/	4a-\	.
8r	8r	8ryy	.
*	*v	*v	*
!!LO:LB:g=original
=31	=31	=31
*clefF4	*	*
4.ryy	(8g/L	p
.	8a-/	.
.	8an/	.
4ryy	8b-/	.
.	8g/J)	.
8e->\	8ryy	.
4.ryy	(8d/L	.
.	8f/	.
.	8a-X/	.
4ryy	8cc/	.
.	8b-/J)	.
8a->\	8ryy	.
=32	=32	=32
4.ryy	8g/L	.
.	8a-/	.
.	8an/	.
4ryy	8b-/	.
.	8g/J	.
8e->\	8ryy	.
4.ryy	8d/L	.
.	8f/	.
.	8a-X/	.
4r>	8cc-X/	.
.	8b-/J	.
8a->\	8ryy	.
=33	=33	=33
*	*ped	*
8E-\ 8e-	8g\L	.
4r	8b-\	.
.	8ee-\	.
!LO:TX:a:t=mg.	!	!
8eee->/	8gg\	.
4r>	8dd\	.
.	8ee-\J	.
8E-\ 8e-	8g\L	.
4r	8dd-X\	.
.	8ee-\	.
8eee->/	8gg\	.
4r>	8ddn\	.
.	8ee-\J	.
!!LO:LB:g=original
=34	=34	=34
8E-\ 8e-	8a-\L	.
4r	8cc\	.
.	8ee-\	.
8eee->/	8aa-\	.
4r>	8ddn\	.
.	8ee-\J	.
8E-\ 8e-	8a-\L	.
4r	8bn\	.
.	8dd\	.
(>4.fff>/	8aa-\	.
.	8b\	.
.	8dd\J	.
=35	=35	=35
8eee->/)	8g\L	.
4r>	8ee-\	.
.	8b-X\	.
8E-\	8gg\	.
4r	8ddn\	.
.	8ee-\J	.
8eee->/	8g\L	.
4r>	8ee-\	.
.	8dd-X\	.
8E-\	8gg\	.
4r	8ddn\	.
.	8ee-\J	.
=36	=36	=36
8eee->/	8a-\L	.
4r>	8ee-\	.
.	8cc\	.
8E-\	8aa-\	.
4r	8dd\	.
.	8ee-\J	.
8ddd>/	8a-\L	.
4r>	8dd\	.
.	8bn\	.
8E-\	8aa-\	.
4r	8b\	.
.	8dd\J	.
!!LO:LB:g=original
=37	=37	=37
8eee->/	8g\L	.
4r>	8ee-\	.
.	8b-X\	.
8E-\	8gg\	.
4r	8dd\	.
.	8ee-\J	.
8ggg>/	8g\L	.
4r>	8ee-\	.
.	8b-\	.
8E-\	8gg\	.
4r	8dd\	.
.	8ee-\J	.
=38	=38	=38
8bbb->/	8g\L	.
4r>	8ee-\	.
.	8b-\	.
8E-\	8gg\	.
4r	8dd\	.
.	8ee-\J	.
8ggg>/	8g\L	.
4r>	8ee-\	.
.	8b-\	.
8E-\	8gg\	.
4r	8dd\	.
.	8ee-\J	.
=39	=39	=39
4eee->/	4g\ 4ee-	.
8r	8r	.
4E-\ 4e-	4g\ 4b- 4ee- 4gg	.
8r	8r	.
2.EE-/ 2.E-	2e-;/ 2g 2b- 2ee-	.
.	4ryy	.
!LO:TX:b:t=3043	!	!
==	==	==
*-	*-	*-
!!!system-decoration: [(s1,s2)]
!!!RDF**kern: > = above
!!!RDF**kern: < = below
!!!EED: Leszek Kubiak
!!!EST: 2020-07-21
!!!ENC: Berenika Jozajtis
!!!END: 2020-06-17
